X: 2037
T: The MARCHIONESS OF HUNTLY
Q: "Strathspey."
R: strathspey
B: Kerr's v.2 p.7 #37
Z: 2016 John Chambers <jc:trillian.mit.edu>
M: C
L: 1/16
K: A
[|\
C3DE3C (DF3)E4 | (FB3) (B3c) dcBA GFED |\
C3DE3C (DF3)E4 | F3B AGFE A4 A4 |
C3DE3C (DF3)E4 | (FB3) (B3c) dcBA GFED |\
C3DE3C (DF3)E4 | F3B AGFE A4 A2 ||
d2 |\
ce3A3e c3e dcBA | GB3E3B GB3E3d |\
ce2A3e c3e dcBA | GB2E3G A6 d2 |
ce3A3e (e2f2g2)a2 | FB3 B3c dcBA GFED |\
C3DE3C (DF3) E4 | F3B AGFE A4 A4 |]

%%sep 1 1 500
%%sep 1 1 500

